X: 1
T: the Anvil
C: Ronald Cooper (1934-1982)
R: reel
Z: 2009 John Chambers <jc:trillian.mit.edu>
S: PDF MS from Sylvia Miskoe
M: C|
L: 1/8
K: A
E2 \
| "A"A2EA cAce | "D"agaf "A"eAce \
| "D"dcde fAdf | "B7"bagf "E7"edcB \
| "A"A2EA cAce | "D"agaf "A"eAce \
| "D"d2fd "E7"ecdB | "A"c2A2 A2 :|
"(E7)"f2 \
| "A"e2ce "D"agaf | "A"eAce Acec \
| "D"dcde "Bm"fBdf | "d#/B7"bagf "E7"e2f2 \
| "A"e2ce "D"agaf | "A"eAce Acec \
| "D"d2fd "E7"ecdB | "A"c2A2 A2 |]
"(E7)"f2 \
| "A"e2ce "D"agaf | "A"eAce Acec \
| "D"dcde "Bm"fBdf | "d#/B7"bagf "E7"edcB \
| "A"A2EA cAce | "D"agaf "A"eAce \
| "D"d2fd "E7"ecdB | "A"c2A2 A2 |]
